X: 4190
M: 6/8
L: 1/8
K: D
(uFG) |\
(eg) |\
fdd dgg | fdd dgg | fdd dff | a3 a2g |
fdd dgg | fdd d2f | e2d e2f | g3- g ::\
(eg) |\
fdf ece | ddc BAG | FED DFD | A3 ABc |\
d2B c2A | B2G F2D | E2=c BAB | G3- G :|


